subtitld/graphics/subtitles_panel_simplelist_properties_duration_timing_lock_closed_icon.svg

<?xml version="1.0" encoding="UTF-8" standalone="no"?>
<svg
   width="16"
   height="16"
   version="1.1"
   viewBox="0 0 16 16"
   id="svg8"
   sodipodi:docname="subtitles_panel_simplelist_properties_duration_timing_lock_closed_icon.svg"
   inkscape:version="1.1.2 (08b2f3d93c, 2022-04-05)"
   xmlns:inkscape="http://www.inkscape.org/namespaces/inkscape"
   xmlns:sodipodi="http://sodipodi.sourceforge.net/DTD/sodipodi-0.dtd"
   xmlns="http://www.w3.org/2000/svg"
   xmlns:svg="http://www.w3.org/2000/svg">
  <defs
     id="defs12" />
  <sodipodi:namedview
     id="namedview10"
     pagecolor="#ffffff"
     bordercolor="#666666"
     borderopacity="1.0"
     inkscape:pageshadow="2"
     inkscape:pageopacity="0.0"
     inkscape:pagecheckerboard="0"
     showgrid="false"
     inkscape:zoom="40.4"
     inkscape:cx="9.6410891"
     inkscape:cy="9.9876238"
     inkscape:window-width="1920"
     inkscape:window-height="1016"
     inkscape:window-x="0"
     inkscape:window-y="0"
     inkscape:window-maximized="1"
     inkscape:current-layer="svg8" />
  <path
     d="M 12.571428,5.3333332 H 11.809524 V 3.8095237 C 11.809524,1.7066665 10.102857,-9.5e-8 8,-9.5e-8 5.8971429,-9.5e-8 4.1904762,1.7066665 4.1904762,3.8095237 V 5.3333332 H 3.4285714 c -0.8380952,0 -1.5238095,0.6857142 -1.5238095,1.5238095 V 14.47619 C 1.9047619,15.314285 2.5904762,16 3.4285714,16 h 9.1428566 c 0.838096,0 1.52381,-0.685715 1.52381,-1.52381 V 6.8571427 c 0,-0.8380953 -0.685714,-1.5238095 -1.52381,-1.5238095 z M 5.7142857,3.8095237 C 5.7142857,2.5447618 6.7352381,1.5238094 8,1.5238094 c 1.264762,0 2.285714,1.0209524 2.285714,2.2857143 V 5.3333332 H 5.7142857 Z M 12.571428,14.47619 H 3.4285714 V 6.8571427 H 12.571428 Z M 8,12.190476 c 0.838095,0 1.523809,-0.685714 1.523809,-1.523809 C 9.523809,9.8285713 8.838095,9.1428571 8,9.1428571 c -0.838095,0 -1.5238095,0.6857142 -1.5238095,1.5238099 0,0.838095 0.6857145,1.523809 1.5238095,1.523809 z"
     id="path8"
     style="stroke-width:1;fill:#000000;fill-opacity:0.5" />
</svg>

<svg width="16" height="16" version="1.1" viewBox="0 0 16 16" xmlns="http://www.w3.org/2000/svg"><path d="m12.571 5.3333h-0.7619v-1.5238c0-2.1029-1.7067-3.8095-3.8095-3.8095-2.1029 0-3.8095 1.7067-3.8095 3.8095v1.5238h-0.7619c-0.8381 0-1.5238 0.68571-1.5238 1.5238v7.619c0 0.8381 0.68571 1.5238 1.5238 1.5238h9.1429c0.8381 0 1.5238-0.68572 1.5238-1.5238v-7.619c0-0.8381-0.68571-1.5238-1.5238-1.5238zm-6.8571-1.5238c0-1.2648 1.021-2.2857 2.2857-2.2857 1.2648 0 2.2857 1.021 2.2857 2.2857v1.5238h-4.5714zm6.8571 10.667h-9.1429v-7.619h9.1429zm-4.5714-2.2857c0.8381 0 1.5238-0.68571 1.5238-1.5238 0-0.8381-0.68571-1.5238-1.5238-1.5238s-1.5238 0.68571-1.5238 1.5238c0 0.8381 0.68571 1.5238 1.5238 1.5238z" fill-opacity=".5"/></svg>
